src/main/resources/icons/SpringApiIcons/icons/factoryMethodBean.svg

<svg xmlns="http://www.w3.org/2000/svg" width="16" height="16" viewBox="0 0 16 16">
  <g fill="none" fill-rule="evenodd">
    <path fill="#F98B9E" fill-opacity=".7" d="M5.9795,3.4902 C5.9795,4.8642 4.8655,5.9792 3.4905,5.9792 C2.1145,5.9792 1.0005,4.8642 1.0005,3.4892 C1.0005,2.1142 2.1155,1.0002 3.4905,1.0002 C4.8655,1.0002 5.9795,2.1152 5.9795,3.4902"/>
    <path fill="#62B543" fill-opacity=".7" d="M6.43317074,5.36547218 C6.77906084,4.82383734 6.9795,4.18041969 6.9795,3.49040084 C6.9795,2.56119948 6.61654867,1.71670849 6.02463474,1.09123076 C8.24819819,0.686037864 10.6202764,1.65174131 12.5345972,3.56677327 C13.913048,4.94522271 14.7996853,6.56146029 15.0364018,8.18860731 C14.1642269,7.44728122 13.0343475,7 11.8,7 C10.7431661,7 9.76291343,7.32788327 8.95541866,7.88747315 L6.43317074,5.36547218 Z M1.09163063,6.02428088 C1.71688795,6.61617205 2.56114268,6.9792 3.49070084,6.9792 C4.18025531,6.9792 4.8229801,6.77914217 5.3641176,6.4339767 L7.85623099,8.92608774 C7.19436499,9.7740403 6.8,10.8409657 6.8,12 C6.8,13.1094137 7.16132068,14.1344364 7.77270437,14.9638105 C6.28726586,14.6469684 4.82701692,13.7972913 3.56554326,12.5358188 C1.65119998,10.6214773 0.685400708,8.24852178 1.09163063,6.02428088 Z"/>
    <path fill="#9AA7B0" d="M14.7038963,12.5790317 L15.6135595,13.2316899 C15.4384896,13.7731744 15.1510977,14.2641457 14.7788518,14.6771359 L13.7588158,14.2169755 C13.468497,14.4727984 13.1275303,14.6724899 12.7528891,14.7990766 L12.6417488,15.9127236 C12.3724461,15.9699115 12.0931267,16 11.8067798,16 C11.5204328,16 11.2411134,15.9699115 10.9718107,15.9127236 L10.8606704,14.7990765 C10.4860293,14.6724898 10.1450626,14.4727983 9.85474385,14.2169754 L8.83470769,14.6771359 C8.46246178,14.2641457 8.17506991,13.7731744 8,13.2316899 L8.90966347,12.5790315 C8.87244924,12.3917905 8.85293363,12.1981744 8.85293363,12.0000001 C8.85293363,11.8018258 8.87244926,11.6082096 8.90966352,11.4209686 L8,10.7683101 C8.17506991,10.2268256 8.46246178,9.73585432 8.83470769,9.32286405 L9.85474407,9.78302467 C10.1450628,9.52720191 10.4860293,9.32751047 10.8606704,9.20092378 L10.9718107,8.08727644 C11.2411134,8.03008853 11.5204328,8 11.8067798,8 C12.0931267,8 12.3724461,8.03008853 12.6417488,8.08727644 L12.7528891,9.20092368 C13.1275302,9.32751034 13.4684969,9.5272018 13.7588156,9.78302459 L14.7788518,9.32286405 C15.1510977,9.73585432 15.4384896,10.2268256 15.6135595,10.7683101 L14.7038962,11.4209684 C14.7411105,11.6082095 14.7606262,11.8018258 14.7606262,12.0000001 C14.7606262,12.1981744 14.7411105,12.3917906 14.7038963,12.5790317 Z M11.8067796,13.4156281 C12.5884749,13.4156281 13.2221642,12.7818843 13.2221642,12.0001217 C13.2221642,11.2183591 12.5884749,10.5846153 11.8067796,10.5846153 C11.0250843,10.5846153 10.391395,11.2183591 10.391395,12.0001217 C10.391395,12.7818843 11.0250843,13.4156281 11.8067796,13.4156281 Z"/>
  </g>
</svg>

<svg xmlns="http://www.w3.org/2000/svg" width="16" height="16" viewBox="0 0 16 16"><rect id="frame" width="16" height="16" fill="none"/><g fill="none" fill-rule="evenodd"><path fill="#F98B9E" fill-opacity=".7" d="M5.98 3.49A2.49 2.49 0 1 1 1 3.49a2.49 2.49 0 0 1 4.979 0"/><path fill="#62B543" fill-opacity=".7" d="M6.433 5.365A3.472 3.472 0 0 0 6.98 3.49a3.48 3.48 0 0 0-.954-2.399c2.223-.405 4.595.56 6.51 2.476 1.378 1.378 2.265 2.994 2.501 4.622A4.98 4.98 0 0 0 11.8 7a4.977 4.977 0 0 0-2.845.887L6.433 5.365zm-5.341.66c.625.591 1.47.954 2.399.954.69 0 1.332-.2 1.873-.545l2.492 2.492A4.978 4.978 0 0 0 6.8 12c0 1.11.361 2.134.973 2.964-1.486-.317-2.946-1.167-4.207-2.428C1.65 10.62.686 8.249 1.092 6.024z"/><path fill="#9AA7B0" d="M14.704 12.579l.91.653a3.996 3.996 0 0 1-.835 1.445l-1.02-.46a2.95 2.95 0 0 1-1.006.582l-.111 1.114a4.016 4.016 0 0 1-1.67 0l-.111-1.114a2.95 2.95 0 0 1-1.006-.582l-1.02.46A3.996 3.996 0 0 1 8 13.232l.91-.653a2.968 2.968 0 0 1 0-1.158L8 10.768a3.996 3.996 0 0 1 .835-1.445l1.02.46a2.95 2.95 0 0 1 1.006-.582l.11-1.114a4.016 4.016 0 0 1 1.67 0l.112 1.114a2.95 2.95 0 0 1 1.006.582l1.02-.46c.372.413.66.904.835 1.445l-.91.653a2.968 2.968 0 0 1 0 1.158zm-2.897.837a1.415 1.415 0 1 0 0-2.831 1.415 1.415 0 0 0 0 2.83z"/></g></svg>
